packages/kaspersky-hexa-ui-icons/src/iconsSVGs/16/LinkedInColor.svg

<svg width="16" height="16" viewBox="0 0 16 16" fill="none" xmlns="http://www.w3.org/2000/svg">
<path d="M13.7336 1H2.26641C1.567 1 1 1.567 1 2.26641V13.7335C1 14.433 1.567 15 2.26641 15H13.7335C14.433 15 15 14.433 15 13.7335V2.26641C15 1.567 14.433 1 13.7336 1ZM5.33219 13.0885C5.33219 13.2921 5.1672 13.4571 4.96365 13.4571H3.39484C3.19129 13.4571 3.0263 13.2921 3.0263 13.0885V6.51215C3.0263 6.3086 3.19129 6.14361 3.39484 6.14361H4.96365C5.1672 6.14361 5.33219 6.3086 5.33219 6.51215V13.0885ZM4.17925 5.52369C3.35614 5.52369 2.68887 4.85641 2.68887 4.03331C2.68887 3.2102 3.35614 2.54293 4.17925 2.54293C5.00235 2.54293 5.66962 3.2102 5.66962 4.03331C5.66962 4.85641 5.00239 5.52369 4.17925 5.52369ZM13.5307 13.1182C13.5307 13.3053 13.379 13.4571 13.1919 13.4571H11.5084C11.3213 13.4571 11.1696 13.3053 11.1696 13.1182V10.0335C11.1696 9.57335 11.3045 8.01704 9.967 8.01704C8.9295 8.01704 8.71906 9.08229 8.6768 9.56034V13.1182C8.6768 13.3053 8.52511 13.4571 8.33794 13.4571H6.70976C6.52263 13.4571 6.37091 13.3053 6.37091 13.1182V6.48247C6.37091 6.29534 6.52263 6.14361 6.70976 6.14361H8.33794C8.52507 6.14361 8.6768 6.29534 8.6768 6.48247V7.05621C9.06151 6.47887 9.63323 6.03326 10.8505 6.03326C13.5462 6.03326 13.5307 8.55164 13.5307 9.93537V13.1182Z" fill="#0077B7"/>
</svg>

<svg xmlns="http://www.w3.org/2000/svg" width="16" height="16" fill="none" viewBox="0 0 16 16"><path fill="#0077b7" d="M13.7336 1H2.2664C1.567 1 1 1.567 1 2.2664v11.4671C1 14.433 1.567 15 2.2664 15h11.4671C14.433 15 15 14.433 15 13.7335V2.2665C15 1.567 14.433 1 13.7336 1M5.3322 13.0885a.3685.3685 0 0 1-.3685.3686H3.3948a.3685.3685 0 0 1-.3685-.3686V6.5122c0-.2036.165-.3686.3685-.3686h1.5689c.2035 0 .3685.165.3685.3685zm-1.153-7.5648c-.823 0-1.4903-.6673-1.4903-1.4904S3.356 2.543 4.1792 2.543s1.4904.6673 1.4904 1.4904-.6672 1.4904-1.4904 1.4904m9.3515 7.5945a.339.339 0 0 1-.3388.3389h-1.6835a.339.339 0 0 1-.3388-.3389v-3.0847c0-.4602.1349-2.0165-1.2026-2.0165-1.0375 0-1.248 1.0653-1.2902 1.5433v3.5579a.339.339 0 0 1-.3389.3389H6.7098a.339.339 0 0 1-.3389-.3389V6.4825a.339.339 0 0 1 .3389-.3389h1.6281a.339.339 0 0 1 .3389.3389v.5737c.3847-.5773.9564-1.023 2.1737-1.023 2.6957 0 2.6802 2.5184 2.6802 3.9022z"/></svg>
